X: 1524
T: Harry Cotter's Set Tune
B: australian traditional tunes wiki
M:2/4
L:1/8
R: Reel
Q: 1/4=100
K:C
V:1 
e/f/|"C"ge "G7"dB|"C"ce "G7"GA/B/|"C"ce "G7"dB|"C"ce ge/f/|ge "G7"dB|"C"ce "G7"GA/B/|"C"ce "G7"dB|"C"c3:|
|:c/d/|"C"e>f ec|"F"f2-fe/f/|"C"g2-ge|"G7"d2-dc/d/|"C"ee/f/ -ec|"F"f2-fe/f/|"C"ge "G7"dB|"C"c3:|
% abcbook-tune_id 6342d53a340cfbcaf970b600


% abcbook-boost 0
% abcbook-tablature 
% abcbook-transpose 
% abcbook-lastupdated 1665324369242
% abcbook-soundfonts 
% abcbook-repeats 1
% NFF Book 2018

